X:1
T:Cop Show Bass
M:4/4
L:1/16
Q:1/4=105
K:Em
%%MIDI program 36
|: E,,4 z2 E,2 z2 E,,2 E,2 z2 | E,,4 z2 E,2 G,4 E,2 z2 |
A,,4 z2 A,2 z2 A,,2 A,2 z2 | E,,4 z2 E,2 B,,4 z4 |
E,,4 z2 E,2 z2 E,,2 E,2 z2 | E,,4 z2 E,2 G,4 E,2 z2 |
A,,4 z2 A,2 z2 A,,2 A,2 z2 | B,,4 z4 E,,4 z4 :|
